dist/projects/justice/icons/horror.svg

<svg width="80" height="80" viewBox="0 0 80 80" fill="none" xmlns="http://www.w3.org/2000/svg">
<g clip-path="url(#clip0)">
<path d="M77.9187 25.1071C77.6821 24.544 77.331 24.0363 76.8878 23.616C76.4445 23.1958 75.9188 22.8722 75.3439 22.6659C74.769 22.4596 74.1575 22.375 73.5482 22.4175C72.9389 22.46 72.345 22.6286 71.8044 22.9128C69.7469 23.9912 67.7699 25.2167 65.8887 26.5796C65.8887 26.3484 65.8887 26.1178 65.8887 25.8865C65.8887 19.0212 63.1615 12.4371 58.307 7.58261C53.4525 2.72811 46.8684 0.00088501 40.0031 0.00088501C33.1378 0.00088501 26.5537 2.72811 21.6992 7.58261C16.8447 12.4371 14.1175 19.0212 14.1175 25.8865V26.5796C12.2363 25.2167 10.2593 23.9912 8.20186 22.9128C7.22775 22.3956 6.0952 22.2622 5.02757 22.5388C3.95994 22.8155 3.03474 23.4822 2.43441 24.4074C1.83409 25.3326 1.60223 26.4491 1.78455 27.5369C1.96688 28.6246 2.55016 29.6045 3.41936 30.2834C7.12911 33.3125 10.4133 36.8281 13.1831 40.7353C12.6488 45.0196 11.8839 49.272 10.8919 53.474L7.41686 67.6152C7.38115 67.7609 7.37575 67.9123 7.40102 68.0601C7.42628 68.2079 7.48166 68.3489 7.56372 68.4744C7.64577 68.5999 7.75275 68.7071 7.87802 68.7895C8.00328 68.8719 8.14414 68.9277 8.29186 68.9534L12.38 69.6665C13.1056 69.7929 13.7955 70.0738 14.4031 70.49C15.0107 70.9062 15.5218 71.4481 15.9019 72.079L16.3987 72.9046C17.1225 74.102 18.1731 75.0679 19.4269 75.6888C20.6808 76.3097 22.0858 76.5598 23.4769 76.4096L24.4406 76.304C25.1701 76.2249 25.9081 76.3025 26.6053 76.5315C27.3024 76.7606 27.9426 77.1358 28.4831 77.6321L29.1262 78.2234C30.1772 79.1908 31.488 79.83 32.8974 80.0624C34.3068 80.2949 35.7534 80.1103 37.0594 79.5315L37.9169 79.1515C38.5734 78.8622 39.2831 78.7128 40.0006 78.7128C40.7181 78.7128 41.4278 78.8622 42.0844 79.1515L42.9419 79.5315C44.2477 80.1109 45.6944 80.2957 47.104 80.0633C48.5135 79.8309 49.8243 79.1913 50.875 78.2234L51.5181 77.6321C52.0586 77.1359 52.6989 76.7607 53.396 76.5317C54.0931 76.3027 54.8311 76.225 55.5606 76.304L56.5244 76.4096C57.9156 76.5605 59.321 76.3108 60.575 75.6897C61.829 75.0686 62.8794 74.1021 63.6025 72.904L64.1025 72.0796C64.4824 71.4486 64.9934 70.9065 65.6011 70.4902C66.2087 70.0738 66.8987 69.7929 67.6244 69.6665L71.7125 68.9534C71.8602 68.9277 72.0011 68.8719 72.1263 68.7895C72.2516 68.7071 72.3586 68.5999 72.4406 68.4744C72.5227 68.3489 72.5781 68.2079 72.6033 68.0601C72.6286 67.9123 72.6232 67.7609 72.5875 67.6152L69.115 53.4828C68.1215 49.2771 67.3558 45.0209 66.8212 40.7328C69.591 36.8256 72.8752 33.31 76.585 30.2809C77.3449 29.6849 77.8874 28.8552 78.1285 27.92C78.3695 26.9848 78.2958 25.9962 77.9187 25.1071ZM75.2406 28.5553C71.2363 31.82 67.7098 35.6305 64.7644 39.8753C64.6251 40.0902 64.5656 40.3472 64.5962 40.6015C65.1431 45.1076 65.9403 49.5797 66.9844 53.9971L70.1794 66.9971L67.2419 67.5096C66.2077 67.6894 65.2242 68.0894 64.3581 68.6825C63.492 69.2756 62.7634 70.0479 62.2219 70.9471L61.7219 71.7721C61.2137 72.612 60.4766 73.2895 59.5969 73.7251C58.7173 74.1607 57.7316 74.3364 56.7556 74.2315L55.7912 74.1259C54.7516 74.0123 53.6997 74.1224 52.7062 74.4488C51.7126 74.7752 50.8003 75.3104 50.0306 76.0184L49.3875 76.6096C48.6503 77.2888 47.7306 77.7376 46.7416 77.9008C45.7527 78.064 44.7376 77.9346 43.8212 77.5284L42.9637 77.1478C42.0287 76.7339 41.0175 76.5202 39.995 76.5202C38.9725 76.5202 37.9613 76.7339 37.0262 77.1478L36.1687 77.5284C35.2523 77.9343 34.2373 78.0637 33.2484 77.9004C32.2595 77.7372 31.3398 77.2885 30.6025 76.6096L29.9594 76.0184C29.1896 75.3104 28.2774 74.7752 27.2838 74.4488C26.2902 74.1224 25.2384 74.0123 24.1987 74.1259L23.2344 74.2315C22.2585 74.3359 21.2731 74.1601 20.3935 73.7246C19.514 73.2892 18.7767 72.6121 18.2681 71.7728L17.7712 70.9471C17.2297 70.0479 16.5011 69.2756 15.635 68.6825C14.7689 68.0894 13.7854 67.6894 12.7512 67.5096L9.81374 66.9971L13.0112 53.9846C14.054 49.5702 14.8505 45.1012 15.3969 40.5984C15.4275 40.3441 15.368 40.0871 15.2287 39.8721C12.2852 35.6289 8.76105 31.8196 4.75936 28.5553C4.32643 28.2107 4.03758 27.7171 3.94928 27.1709C3.86099 26.6247 3.97961 26.0652 4.28195 25.6018C4.58428 25.1384 5.04859 24.8045 5.58408 24.6652C6.11958 24.526 6.68774 24.5915 7.17749 24.849C9.76147 26.193 12.2039 27.7931 14.4681 29.6253C14.626 29.7561 14.8176 29.84 15.0209 29.8672C15.2242 29.8944 15.431 29.8639 15.6178 29.7792C15.8046 29.6944 15.9638 29.5589 16.0773 29.388C16.1907 29.2171 16.2538 29.0178 16.2594 28.8128C16.2831 27.8384 16.3019 26.864 16.3019 25.889C16.3019 19.6039 18.7986 13.5762 23.2429 9.1319C27.6871 4.68764 33.7148 2.19088 40 2.19088C46.2851 2.19088 52.3128 4.68764 56.7571 9.1319C61.2013 13.5762 63.6981 19.6039 63.6981 25.889C63.6981 26.864 63.7169 27.8384 63.7406 28.8128C63.7456 29.0181 63.8083 29.2178 63.9215 29.3891C64.0347 29.5605 64.1939 29.6965 64.3808 29.7816C64.5677 29.8667 64.7748 29.8974 64.9783 29.8704C65.1819 29.8433 65.3737 29.7594 65.5319 29.6284C67.796 27.796 70.2385 26.1957 72.8225 24.8515C73.0948 24.7084 73.394 24.6235 73.7009 24.6022C74.0078 24.5809 74.3158 24.6236 74.6054 24.7276C74.8949 24.8316 75.1597 24.9947 75.3829 25.2065C75.6061 25.4182 75.7828 25.6741 75.9019 25.9578C76.0923 26.4032 76.1307 26.899 76.0112 27.3685C75.8917 27.838 75.6209 28.2551 75.2406 28.5553Z" fill="white"/>
<path d="M31.9138 13.8281C29.3938 13.8281 27.3438 16.3344 27.3438 19.4144C27.3438 22.4944 29.3938 25 31.9138 25C34.4338 25 36.4844 22.4937 36.4844 19.4144C36.4844 16.335 34.4375 13.8281 31.9138 13.8281ZM31.9138 22.8125C30.6225 22.8125 29.5312 21.2562 29.5312 19.4144C29.5312 17.5725 30.625 16.0156 31.9138 16.0156C33.2025 16.0156 34.2969 17.5719 34.2969 19.4144C34.2969 21.2569 33.2056 22.8125 31.9138 22.8125Z" fill="white"/>
<path d="M48.0856 13.8281C45.5656 13.8281 43.5156 16.3344 43.5156 19.4144C43.5156 22.4944 45.5656 25 48.0856 25C50.6056 25 52.6562 22.4937 52.6562 19.4144C52.6562 16.335 50.6062 13.8281 48.0856 13.8281ZM48.0856 22.8125C46.7944 22.8125 45.7031 21.2562 45.7031 19.4144C45.7031 17.5725 46.7944 16.0156 48.0856 16.0156C49.3769 16.0156 50.4688 17.5719 50.4688 19.4144C50.4688 21.2569 49.375 22.8125 48.0856 22.8125Z" fill="white"/>
<path d="M40 24.2969C37.35 24.2969 35.2731 27.4713 35.2731 31.5238C35.2731 35.5763 37.35 38.75 40 38.75C42.65 38.75 44.7262 35.5756 44.7262 31.5238C44.7262 27.4719 42.65 24.2969 40 24.2969ZM40 36.5625C38.8012 36.5625 37.4606 34.4075 37.4606 31.5238C37.4606 28.64 38.8012 26.4844 40 26.4844C41.1987 26.4844 42.5387 28.6394 42.5387 31.5238C42.5387 34.4081 41.1987 36.5625 40 36.5625Z" fill="white"/>
</g>
<defs>
<clipPath id="clip0">
<rect width="80" height="80" fill="white"/>
</clipPath>
</defs>
</svg>

<svg width="80" height="80" fill="none" xmlns="http://www.w3.org/2000/svg"><g clip-path="url(#clip0)" fill="#fff"><path d="M77.919 25.107a4.409 4.409 0 00-6.115-2.194 48.306 48.306 0 00-5.915 3.667v-.693a25.886 25.886 0 10-51.771 0v.693a48.31 48.31 0 00-5.916-3.667 4.41 4.41 0 00-4.783 7.37 53.254 53.254 0 019.764 10.452c-.534 4.285-1.3 8.537-2.291 12.739L7.417 67.615a1.094 1.094 0 00.875 1.338l4.088.713a5.141 5.141 0 013.522 2.413l.497.826a7.35 7.35 0 007.078 3.505l.964-.106a5.156 5.156 0 014.042 1.328l.643.591a7.33 7.33 0 007.933 1.308l.858-.38a5.167 5.167 0 014.167 0l.858.38a7.324 7.324 0 007.933-1.308l.643-.59a5.157 5.157 0 014.043-1.329l.963.106a7.342 7.342 0 007.078-3.506l.5-.824a5.14 5.14 0 013.522-2.413l4.089-.714a1.094 1.094 0 00.875-1.338l-3.473-14.132a120.072 120.072 0 01-2.294-12.75 53.253 53.253 0 019.764-10.452 4.395 4.395 0 001.334-5.174zm-2.678 3.448a55.229 55.229 0 00-10.477 11.32 1.101 1.101 0 00-.168.727 122.29 122.29 0 002.388 13.395l3.195 13-2.937.513a7.324 7.324 0 00-5.02 3.437l-.5.825a5.16 5.16 0 01-4.966 2.46l-.965-.106a7.332 7.332 0 00-5.76 1.892l-.643.592a5.14 5.14 0 01-5.567.918l-.857-.38a7.334 7.334 0 00-5.938 0l-.857.38a5.142 5.142 0 01-5.566-.918l-.644-.592a7.333 7.333 0 00-5.76-1.892l-.965.105a5.164 5.164 0 01-4.966-2.458l-.497-.826a7.324 7.324 0 00-5.02-3.437l-2.937-.513 3.197-13.012a122.32 122.32 0 002.386-13.387 1.095 1.095 0 00-.168-.726 55.23 55.23 0 00-10.47-11.317 2.223 2.223 0 012.418-3.706 43.498 43.498 0 017.291 4.776 1.094 1.094 0 001.791-.812c.024-.975.043-1.949.043-2.924a23.698 23.698 0 1147.396 0c0 .975.019 1.95.043 2.924a1.094 1.094 0 001.79.815 43.496 43.496 0 017.291-4.776 2.219 2.219 0 013.08 1.106 2.205 2.205 0 01-.661 2.597z"/><path d="M31.914 13.828c-2.52 0-4.57 2.506-4.57 5.586 0 3.08 2.05 5.586 4.57 5.586 2.52 0 4.57-2.506 4.57-5.586 0-3.079-2.047-5.586-4.57-5.586zm0 8.985c-1.292 0-2.383-1.557-2.383-3.399 0-1.841 1.094-3.398 2.383-3.398 1.288 0 2.383 1.556 2.383 3.398 0 1.843-1.091 3.398-2.383 3.398zm16.172-8.985c-2.52 0-4.57 2.506-4.57 5.586 0 3.08 2.05 5.586 4.57 5.586 2.52 0 4.57-2.506 4.57-5.586 0-3.079-2.05-5.586-4.57-5.586zm0 8.985c-1.292 0-2.383-1.557-2.383-3.399 0-1.841 1.091-3.398 2.383-3.398 1.29 0 2.383 1.556 2.383 3.398 0 1.843-1.094 3.398-2.383 3.398zM40 24.297c-2.65 0-4.727 3.174-4.727 7.227 0 4.052 2.077 7.226 4.727 7.226 2.65 0 4.726-3.174 4.726-7.226S42.65 24.297 40 24.297zm0 12.265c-1.199 0-2.54-2.154-2.54-5.038 0-2.884 1.341-5.04 2.54-5.04s2.539 2.155 2.539 5.04c0 2.884-1.34 5.038-2.539 5.038z"/></g><defs><clipPath id="clip0"><path fill="#fff" d="M0 0h80v80H0z"/></clipPath></defs></svg>
